X: 69
T:Scotland the Brave
M:4/4
L:1/4
K:G
D|"G"G2 G3/2A/2|"G"BG Bd|"G/b"g2 "C"g3/2a/2|"G/b"gd BG|!
"C"c2 e3/2c/2|"G"Bd BG|"Am"A2 d3/2e/2|"D7"dc BA|!
"G"G2 "C"G3/2A/2|"G"BG Bd|"G/b"g2 "C"g3/2f/2|"G/b"gd BG|!
"C"c2 e3/2c/2|"G"Bd "Em"BG|"Am"A2 "D7"G3/2F/2|"G"G2 fg|!
"D7"a2 a3/2a/2|"D7"af d2|"G"g2 b3/2a/2|"G"gd BG|!
"Em"g2 gg|"B7"f2 gf|"Em"eg fe|"D7"dc BA|!
"G"G2 "C"G3/2A/2|"G"BG Bd|"G/b"g2 "C"g3/2f/2|"G/b"gd BG|!
"C"c2 e3/2c/2|"G"Bd "Em"BG|"Am"A2 "D7"G3/2F/2|"G"G2 G:|!
